build/img/icons/tools.svg

<svg width="24" height="22" viewBox="0 0 24 22" fill="none" xmlns="http://www.w3.org/2000/svg">
<path d="M2.00084 8.65399L4.81384 11.476L11.1458 5.12599L8.33184 2.30299L1.99984 8.65299L2.00084 8.65399ZM6.44184 16.782L8.55184 14.665C8.64412 14.5722 8.75382 14.4986 8.87463 14.4484C8.99545 14.3982 9.125 14.3723 9.25584 14.3723C9.38669 14.3723 9.51624 14.3982 9.63705 14.4484C9.75787 14.4986 9.86757 14.5722 9.95984 14.665C10.1464 14.8524 10.2511 15.1061 10.2511 15.3705C10.2511 15.6349 10.1464 15.8886 9.95984 16.076L7.84984 18.193C8.0364 18.3804 8.14113 18.6341 8.14113 18.8985C8.14113 19.1629 8.0364 19.4166 7.84984 19.604L6.44084 21.015C6.34859 21.1076 6.23895 21.1811 6.11823 21.2312C5.9975 21.2814 5.86807 21.3072 5.73734 21.3072C5.60662 21.3072 5.47718 21.2814 5.35646 21.2312C5.23574 21.1811 5.1261 21.1076 5.03384 21.015L3.62684 19.605C3.43998 19.4175 3.33506 19.1637 3.33506 18.899C3.33506 18.6343 3.43998 18.3804 3.62684 18.193L5.03384 16.782C5.1261 16.6894 5.23574 16.6159 5.35646 16.5658C5.47718 16.5156 5.60662 16.4898 5.73734 16.4898C5.86807 16.4898 5.9975 16.5156 6.11823 16.5658C6.23895 16.6159 6.34859 16.6894 6.44084 16.782H6.44184ZM15.5878 10.432L21.9188 4.08199L20.5118 2.66999L14.1808 9.01999C13.4038 8.24 13.2688 7.11299 13.8788 6.49999L19.4068 0.955994C20.0168 0.343994 21.1418 0.478994 21.9188 1.25899L23.3258 2.66899C24.1038 3.44899 24.2388 4.57799 23.6278 5.18899L18.0998 10.734C17.4898 11.346 16.3648 11.211 15.5878 10.431V10.432ZM14.6638 14.298L9.73884 9.35999L9.03484 10.066L13.9598 15.005L14.6638 14.299V14.298ZM16.0708 15.71L15.3668 16.415L17.1258 18.179C17.3198 18.374 17.6358 18.374 17.8288 18.179C17.922 18.0853 17.9742 17.9586 17.9742 17.8265C17.9742 17.6944 17.922 17.5677 17.8288 17.474L16.0708 15.71ZM2.06084 5.76999C1.92764 5.49064 1.8841 5.17693 1.93619 4.87186C1.98829 4.56679 2.13348 4.2853 2.35184 4.06599L3.75884 2.65599C3.97674 2.43708 4.25728 2.2913 4.56166 2.2388C4.86604 2.18631 5.17921 2.22971 5.45784 2.36299L6.92484 0.891994C7.10936 0.706771 7.32863 0.559803 7.57008 0.459521C7.81153 0.359239 8.0704 0.307617 8.33184 0.307617C8.59329 0.307617 8.85216 0.359239 9.09361 0.459521C9.33506 0.559803 9.55433 0.706771 9.73884 0.891994L12.5528 3.71499C12.926 4.0898 13.1354 4.59713 13.1354 5.12599C13.1354 5.65485 12.926 6.16219 12.5528 6.53699L11.1458 7.94799L19.2358 16.062C19.7024 16.5305 19.9643 17.1648 19.9643 17.826C19.9643 18.4872 19.7024 19.1215 19.2358 19.59C19.0052 19.8215 18.7312 20.0052 18.4294 20.1306C18.1277 20.2559 17.8041 20.3204 17.4773 20.3204C17.1506 20.3204 16.827 20.2559 16.5253 20.1306C16.2235 20.0052 15.9494 19.8215 15.7188 19.59L7.62884 11.476L6.22084 12.887C5.44384 13.667 4.18384 13.667 3.40684 12.887L0.592844 10.065C0.219428 9.69014 0.00976562 9.1826 0.00976563 8.65349C0.00976562 8.12439 0.219428 7.61684 0.592844 7.24199L2.05984 5.77199L2.06084 5.76999Z" fill="#5CC773"/>
</svg>

<svg width="24" height="22" fill="none" xmlns="http://www.w3.org/2000/svg">
    <path d="m2 8.654 2.814 2.822 6.332-6.35-2.814-2.823L2 8.653v.001zm4.442 8.128 2.11-2.117a.992.992 0 0 1 1.408 0 1 1 0 0 1 0 1.411l-2.11 2.117a1 1 0 0 1 0 1.411l-1.41 1.411a.992.992 0 0 1-1.406 0l-1.407-1.41a1 1 0 0 1 0-1.412l1.407-1.411a.993.993 0 0 1 1.407 0zm9.146-6.35 6.33-6.35-1.406-1.412-6.331 6.35c-.777-.78-.912-1.907-.302-2.52L19.407.956c.61-.612 1.735-.477 2.512.303l1.407 1.41c.778.78.913 1.909.302 2.52L18.1 10.734c-.61.612-1.735.477-2.512-.303v.001zm-.924 3.866L9.739 9.36l-.704.706 4.925 4.939.704-.706v-.001zm1.407 1.412-.704.705 1.759 1.764a.496.496 0 0 0 .848-.352.5.5 0 0 0-.145-.353L16.07 15.71zM2.06 5.77a1.5 1.5 0 0 1 .29-1.704l1.408-1.41a1.49 1.49 0 0 1 1.699-.293L6.925.892a1.986 1.986 0 0 1 2.814 0l2.814 2.823a2 2 0 0 1 0 2.822l-1.407 1.411 8.09 8.114a2.5 2.5 0 0 1-.807 4.069 2.482 2.482 0 0 1-2.71-.541l-8.09-8.114-1.408 1.411c-.777.78-2.037.78-2.814 0L.593 10.065a2 2 0 0 1 0-2.823l1.467-1.47V5.77z" fill="#5CC773"/>
</svg>
